X: 1
T: The Priest
M: 12/8
L: 1/8
K: Gmaj
g|"G"edB d2 B d2 B B2 g|"G"edB d2 B "D7"c2 A A2 g|
"G"edB d2 B BAB "C"g3|"Em"BAB g3 B2 G "C"G2 :|]
f|"G"gag fgf g2 e "Em"e2 d|"Am"eaa aga "Em"b2 e e2 f|
"Em"gag "D"fgf g2 e "C"e2 d|"Em"BAB g3 B2 G "C"G2:|]

